X: 1
T: THE PRIEST IN HIS BOOTS -- JIG
B: Ryan's Mammoth Collection of Fiddle Tunes
R: jig
M: 6/8
L: 1/8
Z: Contributed 20001106221314 by John Chambers John.Chambers:weema.com
K: G
vA2A A2A | (AB)(G A).F.D | GFG BAG | (FD).F A2d \
| A2(A A).A.A | (AB)(G A).F.D | G2B B2d | (cA).F G2 :|
|: (uB/c/) \
| dBB cAA | BGG AFD | (GF)(G B).A.G | (FD).F A2(B/c/) \
| dBB cAA | BdB AFD | G2B B2d | cAF G2 :|
